svgs/thin/microscope.svg

<svg xmlns="http://www.w3.org/2000/svg" viewBox="0 0 512 512"><!--! Font Awesome Pro 6.6.0 by @fontawesome - https://fontawesome.com License - https://fontawesome.com/license (Commercial License) Copyright 2024 Fonticons, Inc. --><path d="M176 24l0 16c0 4.4-3.6 8-8 8l-8 0c-8.8 0-16 7.2-16 16l0 224c0 8.8 7.2 16 16 16l96 0c8.8 0 16-7.2 16-16l0-144 0-16 0-64c0-8.8-7.2-16-16-16l-8 0c-4.4 0-8-3.6-8-8l0-16c0-4.4-3.6-8-8-8l-48 0c-4.4 0-8 3.6-8 8zM288 144l0 144c0 17.7-14.3 32-32 32l-96 0c-17.7 0-32-14.3-32-32l0-224c0-17.7 14.3-32 32-32l0-8c0-13.3 10.7-24 24-24l48 0c13.3 0 24 10.7 24 24l0 8c17.7 0 32 14.3 32 32l0 64c106 0 192 86 192 192c0 78.7-47.4 146.4-115.1 176L504 496c4.4 0 8 3.6 8 8s-3.6 8-8 8l-216 0-80 0L8 512c-4.4 0-8-3.6-8-8s3.6-8 8-8l200 0 80 0c97.2 0 176-78.8 176-176s-78.8-176-176-176zM160 360c0-4.4 3.6-8 8-8l80 0c4.4 0 8 3.6 8 8s-3.6 8-8 8l-80 0c-4.4 0-8-3.6-8-8zM96 424c0-4.4 3.6-8 8-8l208 0c4.4 0 8 3.6 8 8s-3.6 8-8 8l-208 0c-4.4 0-8-3.6-8-8z"/></svg>

<svg xmlns="http://www.w3.org/2000/svg" viewBox="0 0 512 512"><!--! Font Awesome Pro 6.5.2 by @fontawesome - https://fontawesome.com License - https://fontawesome.com/license (Commercial License) Copyright 2024 Fonticons, Inc. --><path d="M176 24V40c0 4.4-3.6 8-8 8h-8c-8.8 0-16 7.2-16 16V288c0 8.8 7.2 16 16 16h96c8.8 0 16-7.2 16-16V144 128 64c0-8.8-7.2-16-16-16h-8c-4.4 0-8-3.6-8-8V24c0-4.4-3.6-8-8-8H184c-4.4 0-8 3.6-8 8zM288 144V288c0 17.7-14.3 32-32 32H160c-17.7 0-32-14.3-32-32V64c0-17.7 14.3-32 32-32V24c0-13.3 10.7-24 24-24h48c13.3 0 24 10.7 24 24v8c17.7 0 32 14.3 32 32v64c106 0 192 86 192 192c0 78.7-47.4 146.4-115.1 176H504c4.4 0 8 3.6 8 8s-3.6 8-8 8H288 208 8c-4.4 0-8-3.6-8-8s3.6-8 8-8H208h80c97.2 0 176-78.8 176-176s-78.8-176-176-176zM160 360c0-4.4 3.6-8 8-8h80c4.4 0 8 3.6 8 8s-3.6 8-8 8H168c-4.4 0-8-3.6-8-8zM96 424c0-4.4 3.6-8 8-8H312c4.4 0 8 3.6 8 8s-3.6 8-8 8H104c-4.4 0-8-3.6-8-8z"/></svg>
